images/6605104.svg

<?xml version="1.0" encoding="UTF-8"?>
<svg xmlns="http://www.w3.org/2000/svg" xmlns:xlink="http://www.w3.org/1999/xlink" width="300pt" height="300pt" viewBox="0 0 300 300" version="1.1">
<defs>
<g>
<symbol overflow="visible" id="glyph0-0">
<path style="stroke:none;" d="M 0.546875 1.9375 L 0.546875 -7.75 L 6.046875 -7.75 L 6.046875 1.9375 Z M 1.171875 1.328125 L 5.4375 1.328125 L 5.4375 -7.140625 L 1.171875 -7.140625 Z M 1.171875 1.328125 "/>
</symbol>
<symbol overflow="visible" id="glyph0-1">
<path style="stroke:none;" d="M 1.078125 -8.015625 L 2.546875 -8.015625 L 6.09375 -1.3125 L 6.09375 -8.015625 L 7.15625 -8.015625 L 7.15625 0 L 5.6875 0 L 2.125 -6.703125 L 2.125 0 L 1.078125 0 Z M 1.078125 -8.015625 "/>
</symbol>
<symbol overflow="visible" id="glyph0-2">
<path style="stroke:none;" d="M 1.078125 -8.015625 L 2.171875 -8.015625 L 2.171875 -4.734375 L 6.109375 -4.734375 L 6.109375 -8.015625 L 7.1875 -8.015625 L 7.1875 0 L 6.109375 0 L 6.109375 -3.8125 L 2.171875 -3.8125 L 2.171875 0 L 1.078125 0 Z M 1.078125 -8.015625 "/>
</symbol>
</g>
</defs>
<g id="surface48793">
<rect x="0" y="0" width="300" height="300" style="fill:rgb(100%,100%,100%);fill-opacity:1;stroke:none;"/>
<path style="fill:none;stroke-width:1.2;stroke-linecap:butt;stroke-linejoin:miter;stroke:rgb(0%,0%,0%);stroke-opacity:1;stroke-miterlimit:10;" d="M 171.621094 215.621094 L 162.238281 190.863281 "/>
<path style="fill:none;stroke-width:1.2;stroke-linecap:butt;stroke-linejoin:miter;stroke:rgb(0%,0%,0%);stroke-opacity:1;stroke-miterlimit:10;" d="M 162.238281 190.863281 L 149.171875 188.738281 "/>
<path style="fill:none;stroke-width:1.2;stroke-linecap:butt;stroke-linejoin:miter;stroke:rgb(0%,0%,100%);stroke-opacity:1;stroke-miterlimit:10;" d="M 149.171875 188.738281 L 136.105469 186.613281 "/>
<path style="fill:none;stroke-width:1.2;stroke-linecap:butt;stroke-linejoin:miter;stroke:rgb(0%,0%,0%);stroke-opacity:1;stroke-miterlimit:10;" d="M 160.625 184.289062 L 150.171875 182.589844 "/>
<path style="fill:none;stroke-width:1.2;stroke-linecap:butt;stroke-linejoin:miter;stroke:rgb(0%,0%,100%);stroke-opacity:1;stroke-miterlimit:10;" d="M 150.171875 182.589844 L 139.71875 180.886719 "/>
<path style="fill:none;stroke-width:1.2;stroke-linecap:butt;stroke-linejoin:miter;stroke:rgb(0%,0%,100%);stroke-opacity:1;stroke-miterlimit:10;" d="M 178.988281 170.359375 L 170.613281 180.613281 "/>
<path style="fill:none;stroke-width:1.2;stroke-linecap:butt;stroke-linejoin:miter;stroke:rgb(0%,0%,0%);stroke-opacity:1;stroke-miterlimit:10;" d="M 170.613281 180.613281 L 162.238281 190.863281 "/>
<path style="fill:none;stroke-width:1.2;stroke-linecap:butt;stroke-linejoin:miter;stroke:rgb(0%,0%,100%);stroke-opacity:1;stroke-miterlimit:10;" d="M 136.105469 186.613281 L 131.414062 174.234375 "/>
<path style="fill:none;stroke-width:1.2;stroke-linecap:butt;stroke-linejoin:miter;stroke:rgb(0%,0%,0%);stroke-opacity:1;stroke-miterlimit:10;" d="M 131.414062 174.234375 L 126.722656 161.855469 "/>
<path style=" stroke:none;fill-rule:nonzero;fill:rgb(100%,100%,100%);fill-opacity:1;" d="M 132.105469 180.113281 L 140.105469 180.113281 L 140.105469 193.113281 L 132.105469 193.113281 Z M 132.105469 180.113281 "/>
<g style="fill:rgb(0%,0%,100%);fill-opacity:1;">
  <use xlink:href="#glyph0-1" x="132.105469" y="190.014648"/>
</g>
<path style="fill:none;stroke-width:1.2;stroke-linecap:butt;stroke-linejoin:miter;stroke:rgb(0%,0%,0%);stroke-opacity:1;stroke-miterlimit:10;" d="M 126.722656 161.855469 L 143.472656 141.351562 "/>
<path style="fill:none;stroke-width:1.2;stroke-linecap:butt;stroke-linejoin:miter;stroke:rgb(0%,0%,0%);stroke-opacity:1;stroke-miterlimit:10;" d="M 123.574219 155.863281 L 136.972656 139.460938 "/>
<path style="fill:none;stroke-width:1.2;stroke-linecap:butt;stroke-linejoin:miter;stroke:rgb(0%,0%,100%);stroke-opacity:1;stroke-miterlimit:10;" d="M 102.046875 152.261719 L 114.386719 157.058594 "/>
<path style="fill:none;stroke-width:1.2;stroke-linecap:butt;stroke-linejoin:miter;stroke:rgb(0%,0%,0%);stroke-opacity:1;stroke-miterlimit:10;" d="M 114.386719 157.058594 L 126.722656 161.855469 "/>
<path style="fill:none;stroke-width:1.2;stroke-linecap:butt;stroke-linejoin:miter;stroke:rgb(0%,0%,0%);stroke-opacity:1;stroke-miterlimit:10;" d="M 143.472656 141.351562 L 169.605469 145.601562 "/>
<path style="fill:none;stroke-width:1.2;stroke-linecap:butt;stroke-linejoin:miter;stroke:rgb(0%,0%,0%);stroke-opacity:1;stroke-miterlimit:10;" d="M 143.472656 141.351562 L 136.308594 130.21875 "/>
<path style="fill:none;stroke-width:1.2;stroke-linecap:butt;stroke-linejoin:miter;stroke:rgb(0%,0%,100%);stroke-opacity:1;stroke-miterlimit:10;" d="M 136.308594 130.21875 L 129.148438 119.085938 "/>
<path style="fill:none;stroke-width:1.2;stroke-linecap:butt;stroke-linejoin:miter;stroke:rgb(0%,0%,0%);stroke-opacity:1;stroke-miterlimit:10;" d="M 169.605469 145.601562 L 174.296875 157.980469 "/>
<path style="fill:none;stroke-width:1.2;stroke-linecap:butt;stroke-linejoin:miter;stroke:rgb(0%,0%,100%);stroke-opacity:1;stroke-miterlimit:10;" d="M 174.296875 157.980469 L 178.988281 170.359375 "/>
<path style="fill:none;stroke-width:1.2;stroke-linecap:butt;stroke-linejoin:miter;stroke:rgb(0%,0%,0%);stroke-opacity:1;stroke-miterlimit:10;" d="M 164.71875 150.285156 L 168.472656 160.1875 "/>
<path style="fill:none;stroke-width:1.2;stroke-linecap:butt;stroke-linejoin:miter;stroke:rgb(0%,0%,100%);stroke-opacity:1;stroke-miterlimit:10;" d="M 168.472656 160.1875 L 172.222656 170.09375 "/>
<path style="fill:none;stroke-width:1.2;stroke-linecap:butt;stroke-linejoin:miter;stroke:rgb(0%,0%,0%);stroke-opacity:1;stroke-miterlimit:10;" d="M 169.605469 145.601562 L 177.980469 135.351562 "/>
<path style="fill:none;stroke-width:1.2;stroke-linecap:butt;stroke-linejoin:miter;stroke:rgb(0%,0%,100%);stroke-opacity:1;stroke-miterlimit:10;" d="M 177.980469 135.351562 L 186.355469 125.097656 "/>
<path style=" stroke:none;fill-rule:nonzero;fill:rgb(100%,100%,100%);fill-opacity:1;" d="M 174.988281 163.859375 L 182.988281 163.859375 L 182.988281 176.859375 L 174.988281 176.859375 Z M 174.988281 163.859375 "/>
<g style="fill:rgb(0%,0%,100%);fill-opacity:1;">
  <use xlink:href="#glyph0-1" x="174.988281" y="173.760742"/>
</g>
<path style="fill:none;stroke-width:1.2;stroke-linecap:butt;stroke-linejoin:miter;stroke:rgb(0%,0%,100%);stroke-opacity:1;stroke-miterlimit:10;" d="M 186.355469 125.097656 L 199.417969 127.222656 "/>
<path style="fill:none;stroke-width:1.2;stroke-linecap:butt;stroke-linejoin:miter;stroke:rgb(0%,0%,0%);stroke-opacity:1;stroke-miterlimit:10;" d="M 199.417969 127.222656 L 212.484375 129.351562 "/>
<path style=" stroke:none;fill-rule:nonzero;fill:rgb(100%,100%,100%);fill-opacity:1;" d="M 178.355469 118.597656 L 195.355469 118.597656 L 195.355469 131.597656 L 178.355469 131.597656 Z M 178.355469 118.597656 "/>
<g style="fill:rgb(0%,0%,100%);fill-opacity:1;">
  <use xlink:href="#glyph0-1" x="178.355469" y="128.499023"/>
  <use xlink:href="#glyph0-2" x="186.338867" y="128.499023"/>
</g>
<path style="fill:none;stroke-width:1.2;stroke-linecap:butt;stroke-linejoin:miter;stroke:rgb(0%,0%,0%);stroke-opacity:1;stroke-miterlimit:10;" d="M 212.484375 129.351562 L 221.867188 154.109375 "/>
<path style="fill:none;stroke-width:1.2;stroke-linecap:butt;stroke-linejoin:miter;stroke:rgb(0%,0%,0%);stroke-opacity:1;stroke-miterlimit:10;" d="M 229.234375 108.847656 L 212.484375 129.351562 "/>
<path style="fill:none;stroke-width:1.2;stroke-linecap:butt;stroke-linejoin:miter;stroke:rgb(0%,0%,0%);stroke-opacity:1;stroke-miterlimit:10;" d="M 221.867188 154.109375 L 248 158.359375 "/>
<path style="fill:none;stroke-width:1.2;stroke-linecap:butt;stroke-linejoin:miter;stroke:rgb(0%,0%,0%);stroke-opacity:1;stroke-miterlimit:10;" d="M 248 158.359375 L 264.75 137.855469 "/>
<path style="fill:none;stroke-width:1.2;stroke-linecap:butt;stroke-linejoin:miter;stroke:rgb(0%,0%,0%);stroke-opacity:1;stroke-miterlimit:10;" d="M 264.75 137.855469 L 255.367188 113.097656 "/>
<path style="fill:none;stroke-width:1.2;stroke-linecap:butt;stroke-linejoin:miter;stroke:rgb(0%,0%,0%);stroke-opacity:1;stroke-miterlimit:10;" d="M 255.367188 113.097656 L 229.234375 108.847656 "/>
<path style="fill:none;stroke-width:1.2;stroke-linecap:butt;stroke-linejoin:miter;stroke:rgb(0%,0%,100%);stroke-opacity:1;stroke-miterlimit:10;" d="M 129.148438 119.085938 L 116.347656 122.457031 "/>
<path style="fill:none;stroke-width:1.2;stroke-linecap:butt;stroke-linejoin:miter;stroke:rgb(0%,0%,0%);stroke-opacity:1;stroke-miterlimit:10;" d="M 116.347656 122.457031 L 103.542969 125.828125 "/>
<path style="fill:none;stroke-width:1.2;stroke-linecap:butt;stroke-linejoin:miter;stroke:rgb(0%,0%,100%);stroke-opacity:1;stroke-miterlimit:10;" d="M 128.175781 125.78125 L 117.933594 128.480469 "/>
<path style="fill:none;stroke-width:1.2;stroke-linecap:butt;stroke-linejoin:miter;stroke:rgb(0%,0%,0%);stroke-opacity:1;stroke-miterlimit:10;" d="M 117.933594 128.480469 L 107.691406 131.175781 "/>
<path style=" stroke:none;fill-rule:nonzero;fill:rgb(100%,100%,100%);fill-opacity:1;" d="M 125.148438 112.585938 L 133.148438 112.585938 L 133.148438 125.585938 L 125.148438 125.585938 Z M 125.148438 112.585938 "/>
<g style="fill:rgb(0%,0%,100%);fill-opacity:1;">
  <use xlink:href="#glyph0-1" x="125.148438" y="122.487305"/>
</g>
<path style="fill:none;stroke-width:1.2;stroke-linecap:butt;stroke-linejoin:miter;stroke:rgb(0%,0%,0%);stroke-opacity:1;stroke-miterlimit:10;" d="M 103.542969 125.828125 L 102.796875 139.042969 "/>
<path style="fill:none;stroke-width:1.2;stroke-linecap:butt;stroke-linejoin:miter;stroke:rgb(0%,0%,100%);stroke-opacity:1;stroke-miterlimit:10;" d="M 102.796875 139.042969 L 102.046875 152.261719 "/>
<path style="fill:none;stroke-width:1.2;stroke-linecap:butt;stroke-linejoin:miter;stroke:rgb(0%,0%,0%);stroke-opacity:1;stroke-miterlimit:10;" d="M 103.542969 125.828125 L 83.039062 109.078125 "/>
<path style="fill:none;stroke-width:1.2;stroke-linecap:butt;stroke-linejoin:miter;stroke:rgb(0%,0%,100%);stroke-opacity:1;stroke-miterlimit:10;" d="M 102.046875 152.261719 L 90.914062 159.425781 "/>
<path style="fill:none;stroke-width:1.2;stroke-linecap:butt;stroke-linejoin:miter;stroke:rgb(0%,0%,0%);stroke-opacity:1;stroke-miterlimit:10;" d="M 90.914062 159.425781 L 79.78125 166.585938 "/>
<path style=" stroke:none;fill-rule:nonzero;fill:rgb(100%,100%,100%);fill-opacity:1;" d="M 98.046875 145.761719 L 106.046875 145.761719 L 106.046875 158.761719 L 98.046875 158.761719 Z M 98.046875 145.761719 "/>
<g style="fill:rgb(0%,0%,100%);fill-opacity:1;">
  <use xlink:href="#glyph0-1" x="98.046875" y="155.663086"/>
</g>
<path style="fill:none;stroke-width:1.2;stroke-linecap:butt;stroke-linejoin:miter;stroke:rgb(0%,0%,0%);stroke-opacity:1;stroke-miterlimit:10;" d="M 79.78125 166.585938 L 81.054688 193.03125 "/>
<path style="fill:none;stroke-width:1.2;stroke-linecap:butt;stroke-linejoin:miter;stroke:rgb(0%,0%,0%);stroke-opacity:1;stroke-miterlimit:10;" d="M 81.054688 193.03125 L 69.921875 200.195312 "/>
<path style="fill:none;stroke-width:1.2;stroke-linecap:butt;stroke-linejoin:miter;stroke:rgb(0%,0%,100%);stroke-opacity:1;stroke-miterlimit:10;" d="M 69.921875 200.195312 L 58.789062 207.355469 "/>
<path style="fill:none;stroke-width:1.2;stroke-linecap:butt;stroke-linejoin:miter;stroke:rgb(0%,0%,100%);stroke-opacity:1;stroke-miterlimit:10;" d="M 58.789062 207.355469 L 59.425781 220.578125 "/>
<path style="fill:none;stroke-width:1.2;stroke-linecap:butt;stroke-linejoin:miter;stroke:rgb(0%,0%,0%);stroke-opacity:1;stroke-miterlimit:10;" d="M 59.425781 220.578125 L 60.0625 233.800781 "/>
<path style="fill:none;stroke-width:1.2;stroke-linecap:butt;stroke-linejoin:miter;stroke:rgb(0%,0%,100%);stroke-opacity:1;stroke-miterlimit:10;" d="M 58.789062 207.355469 L 47.019531 201.296875 "/>
<path style="fill:none;stroke-width:1.2;stroke-linecap:butt;stroke-linejoin:miter;stroke:rgb(0%,0%,0%);stroke-opacity:1;stroke-miterlimit:10;" d="M 47.019531 201.296875 L 35.25 195.238281 "/>
<path style=" stroke:none;fill-rule:nonzero;fill:rgb(100%,100%,100%);fill-opacity:1;" d="M 54.789062 200.855469 L 62.789062 200.855469 L 62.789062 213.855469 L 54.789062 213.855469 Z M 54.789062 200.855469 "/>
<g style="fill:rgb(0%,0%,100%);fill-opacity:1;">
  <use xlink:href="#glyph0-1" x="54.789062" y="210.756836"/>
</g>
<path style="fill:none;stroke-width:1.2;stroke-linecap:butt;stroke-linejoin:miter;stroke:rgb(0%,0%,0%);stroke-opacity:1;stroke-miterlimit:10;" d="M 83.039062 109.078125 L 87.292969 82.945312 "/>
<path style="fill:none;stroke-width:1.2;stroke-linecap:butt;stroke-linejoin:miter;stroke:rgb(0%,0%,0%);stroke-opacity:1;stroke-miterlimit:10;" d="M 77.316406 105.464844 L 80.71875 84.558594 "/>
<path style="fill:none;stroke-width:1.2;stroke-linecap:butt;stroke-linejoin:miter;stroke:rgb(0%,0%,0%);stroke-opacity:1;stroke-miterlimit:10;" d="M 58.28125 118.460938 L 83.039062 109.078125 "/>
<path style="fill:none;stroke-width:1.2;stroke-linecap:butt;stroke-linejoin:miter;stroke:rgb(0%,0%,0%);stroke-opacity:1;stroke-miterlimit:10;" d="M 87.292969 82.945312 L 66.789062 66.199219 "/>
<path style="fill:none;stroke-width:1.2;stroke-linecap:butt;stroke-linejoin:miter;stroke:rgb(0%,0%,0%);stroke-opacity:1;stroke-miterlimit:10;" d="M 66.789062 66.199219 L 42.03125 75.582031 "/>
<path style="fill:none;stroke-width:1.2;stroke-linecap:butt;stroke-linejoin:miter;stroke:rgb(0%,0%,0%);stroke-opacity:1;stroke-miterlimit:10;" d="M 66.519531 72.960938 L 46.714844 80.46875 "/>
<path style="fill:none;stroke-width:1.2;stroke-linecap:butt;stroke-linejoin:miter;stroke:rgb(0%,0%,0%);stroke-opacity:1;stroke-miterlimit:10;" d="M 42.03125 75.582031 L 37.777344 101.710938 "/>
<path style="fill:none;stroke-width:1.2;stroke-linecap:butt;stroke-linejoin:miter;stroke:rgb(0%,0%,0%);stroke-opacity:1;stroke-miterlimit:10;" d="M 37.777344 101.710938 L 58.28125 118.460938 "/>
<path style="fill:none;stroke-width:1.2;stroke-linecap:butt;stroke-linejoin:miter;stroke:rgb(0%,0%,0%);stroke-opacity:1;stroke-miterlimit:10;" d="M 43.769531 98.5625 L 60.171875 111.960938 "/>
</g>
</svg>

<svg xmlns="http://www.w3.org/2000/svg" xmlns:xlink="http://www.w3.org/1999/xlink" width="300pt" height="300pt" viewBox="0 0 300 300"><defs><symbol overflow="visible"><path d="M.547 1.938V-7.75h5.5v9.688zm.625-.61h4.266v-8.47H1.171zm0 0"/></symbol><symbol overflow="visible" id="a"><path d="M1.078-8.016h1.47l3.546 6.704v-6.704h1.062V0H5.688L2.124-6.703V0H1.078zm0 0"/></symbol><symbol overflow="visible" id="b"><path d="M1.078-8.016h1.094v3.282H6.11v-3.282h1.077V0H6.11v-3.813H2.17V0H1.078zm0 0"/></symbol></defs><g><path fill="#fff" d="M0 0h300v300H0z"/><path d="M171.62 215.62l-9.382-24.757M162.238 190.863l-13.066-2.125" stroke-width="1.2" stroke="#000" stroke-miterlimit="10" fill="none"/><path d="M149.172 188.738l-13.067-2.125" stroke-width="1.2" stroke="#00f" stroke-miterlimit="10" fill="none"/><path d="M160.625 184.29l-10.453-1.7" stroke-width="1.2" stroke="#000" stroke-miterlimit="10" fill="none"/><path d="M150.172 182.59l-10.453-1.703M178.988 170.36l-8.375 10.253" stroke-width="1.2" stroke="#00f" stroke-miterlimit="10" fill="none"/><path d="M170.613 180.613l-8.375 10.25" stroke-width="1.2" stroke="#000" stroke-miterlimit="10" fill="none"/><path d="M136.105 186.613l-4.69-12.38" stroke-width="1.2" stroke="#00f" stroke-miterlimit="10" fill="none"/><path d="M131.414 174.234l-4.69-12.38" stroke-width="1.2" stroke="#000" stroke-miterlimit="10" fill="none"/><path d="M132.105 180.113h8v13h-8zm0 0" fill="#fff"/><use xlink:href="#a" x="132.105" y="190.015" fill="#00f"/><path d="M126.723 161.855l16.75-20.503M123.574 155.863l13.4-16.402" stroke-width="1.2" stroke="#000" stroke-miterlimit="10" fill="none"/><path d="M102.047 152.262l12.34 4.797" stroke-width="1.2" stroke="#00f" stroke-miterlimit="10" fill="none"/><path d="M114.387 157.06l12.336 4.795M143.473 141.352l26.132 4.25M143.473 141.352l-7.164-11.133" stroke-width="1.2" stroke="#000" stroke-miterlimit="10" fill="none"/><path d="M136.31 130.22l-7.162-11.134" stroke-width="1.2" stroke="#00f" stroke-miterlimit="10" fill="none"/><path d="M169.605 145.602l4.692 12.378" stroke-width="1.2" stroke="#000" stroke-miterlimit="10" fill="none"/><path d="M174.297 157.98l4.69 12.38" stroke-width="1.2" stroke="#00f" stroke-miterlimit="10" fill="none"/><path d="M164.72 150.285l3.753 9.903" stroke-width="1.2" stroke="#000" stroke-miterlimit="10" fill="none"/><path d="M168.473 160.188l3.75 9.906" stroke-width="1.2" stroke="#00f" stroke-miterlimit="10" fill="none"/><path d="M169.605 145.602l8.375-10.25" stroke-width="1.2" stroke="#000" stroke-miterlimit="10" fill="none"/><path d="M177.98 135.352l8.375-10.254" stroke-width="1.2" stroke="#00f" stroke-miterlimit="10" fill="none"/><path d="M174.988 163.86h8v13h-8zm0 0" fill="#fff"/><use xlink:href="#a" x="174.988" y="173.761" fill="#00f"/><path d="M186.355 125.098l13.063 2.125" stroke-width="1.2" stroke="#00f" stroke-miterlimit="10" fill="none"/><path d="M199.418 127.223l13.066 2.13" stroke-width="1.2" stroke="#000" stroke-miterlimit="10" fill="none"/><path d="M178.355 118.598h17v13h-17zm0 0" fill="#fff"/><g fill="#00f"><use xlink:href="#a" x="178.355" y="128.499"/><use xlink:href="#b" x="186.339" y="128.499"/></g><path d="M212.484 129.352l9.383 24.757M229.234 108.848l-16.75 20.504M221.867 154.11L248 158.36M248 158.36l16.75-20.505M264.75 137.855l-9.383-24.757M255.367 113.098l-26.133-4.25" stroke-width="1.2" stroke="#000" stroke-miterlimit="10" fill="none"/><path d="M129.148 119.086l-12.8 3.37" stroke-width="1.2" stroke="#00f" stroke-miterlimit="10" fill="none"/><path d="M116.348 122.457l-12.805 3.37" stroke-width="1.2" stroke="#000" stroke-miterlimit="10" fill="none"/><path d="M128.176 125.78l-10.242 2.7" stroke-width="1.2" stroke="#00f" stroke-miterlimit="10" fill="none"/><path d="M117.934 128.48l-10.243 2.696" stroke-width="1.2" stroke="#000" stroke-miterlimit="10" fill="none"/><path d="M125.148 112.586h8v13h-8zm0 0" fill="#fff"/><use xlink:href="#a" x="125.148" y="122.487" fill="#00f"/><path d="M103.543 125.828l-.746 13.215" stroke-width="1.2" stroke="#000" stroke-miterlimit="10" fill="none"/><path d="M102.797 139.043l-.75 13.22" stroke-width="1.2" stroke="#00f" stroke-miterlimit="10" fill="none"/><path d="M103.543 125.828l-20.504-16.75" stroke-width="1.2" stroke="#000" stroke-miterlimit="10" fill="none"/><path d="M102.047 152.262l-11.133 7.164" stroke-width="1.2" stroke="#00f" stroke-miterlimit="10" fill="none"/><path d="M90.914 159.426l-11.133 7.16" stroke-width="1.2" stroke="#000" stroke-miterlimit="10" fill="none"/><path d="M98.047 145.762h8v13h-8zm0 0" fill="#fff"/><use xlink:href="#a" x="98.047" y="155.663" fill="#00f"/><path d="M79.78 166.586l1.275 26.445M81.055 193.03l-11.133 7.165" stroke-width="1.2" stroke="#000" stroke-miterlimit="10" fill="none"/><path d="M69.922 200.195l-11.133 7.16M58.79 207.355l.636 13.223" stroke-width="1.2" stroke="#00f" stroke-miterlimit="10" fill="none"/><path d="M59.426 220.578l.636 13.223" stroke-width="1.2" stroke="#000" stroke-miterlimit="10" fill="none"/><path d="M58.79 207.355l-11.77-6.058" stroke-width="1.2" stroke="#00f" stroke-miterlimit="10" fill="none"/><path d="M47.02 201.297l-11.77-6.06" stroke-width="1.2" stroke="#000" stroke-miterlimit="10" fill="none"/><path d="M54.79 200.855h8v13h-8zm0 0" fill="#fff"/><use xlink:href="#a" x="54.789" y="210.757" fill="#00f"/><path d="M83.04 109.078l4.253-26.133M77.316 105.465L80.72 84.56M58.28 118.46l24.76-9.382M87.293 82.945L66.79 66.2M66.79 66.2L42.03 75.58M66.52 72.96l-19.805 7.51M42.03 75.582l-4.253 26.13M37.777 101.71l20.504 16.75M43.77 98.563l16.402 13.398" stroke-width="1.2" stroke="#000" stroke-miterlimit="10" fill="none"/></g></svg>
